brandFactory_export/3.Masa/Consulta canjes puntos Movistar_3Masa.svg

<?xml version="1.0" encoding="UTF-8"?>
<svg width="24px" height="24px" viewBox="0 0 24 24" version="1.1" xmlns="http://www.w3.org/2000/svg" xmlns:xlink="http://www.w3.org/1999/xlink">
    <title>3.Masa/Consulta canjes puntos Movistar_3Masa</title>
    <g id="Symbols" stroke="none" stroke-width="1" fill="none" fill-rule="evenodd">
        <g id="3.Masa/Consulta-canjes-puntos-Movistar_3Masa" fill="#5CB615" fill-rule="nonzero">
            <path d="M17.1008403,2.86722689 C20.4789747,6.35454048 20.6299151,11.8020983 17.5536616,15.4645855 L24.3983193,22.3092437 C24.6605042,22.5714286 24.6605042,22.9983193 24.3983193,23.2605042 C24.2672269,23.3882353 24.0991597,23.4588235 23.9210084,23.4588235 C23.7428571,23.4588235 23.5714286,23.3882353 23.4470588,23.2605042 L16.611504,16.4245295 C14.9083766,17.9083833 12.7186511,18.7321726 10.4453782,18.7260843 C5.24537815,18.7260843 1.0302521,14.5109244 1.0302521,9.31092437 C1.0302521,6.81344538 2.02184874,4.42016807 3.78655462,2.65210084 C7.52436975,-0.964705882 13.4840336,-0.867226891 17.1008403,2.86722689 Z M10.4453782,1.24029658 C5.98823529,1.24029658 2.37478992,4.85378151 2.37478992,9.31092437 C2.37478992,11.4521008 3.22521008,13.502521 4.73781513,15.0184874 C7.86717297,18.1712987 12.953578,18.2015176 16.1222062,15.0924999 C16.1438214,15.0646027 16.1674118,15.0390756 16.1932773,15.0151261 L16.2132521,14.998695 L16.3467393,14.863437 C19.3186581,11.7106472 19.2707283,6.74747899 16.1966387,3.64705882 C16.1831933,3.6302521 16.1663866,3.61680672 16.1529412,3.60336134 C14.6403361,2.08403361 12.5865546,1.23361345 10.4453782,1.24029658 Z M5.29579832,4.16134454 C8.17310924,1.28067227 12.8420168,1.28067227 15.7226891,4.16134454 C18.6033613,7.03865546 18.6,11.707563 15.7226891,14.5882353 C12.8453782,17.4689076 8.17647059,17.4655462 5.29579832,14.5882353 C2.41512605,11.7109244 2.4184874,7.04201681 5.29579832,4.16134454 Z M10.6336134,3.9394958 C10.3815126,3.9394958 10.1764706,4.14453782 10.1764706,4.39663866 L10.1764706,4.39663866 L10.1764706,4.71596639 C8.70756303,4.85042017 7.77647059,5.79495798 7.77647059,7.20336134 C7.77647059,8.1210084 8.19663866,9.26722689 10.1764706,9.55966387 L10.1764706,9.55966387 L10.1764706,12.1142857 C9.65882353,12.0470588 9.14117647,11.8420168 8.62689076,11.4991597 C8.50588235,11.4184874 8.36470588,11.3714286 8.21680672,11.3680672 C7.86722689,11.3647059 7.58151261,11.6436975 7.57815126,11.9932773 C7.57815126,12.2218487 7.6789916,12.410084 7.88067227,12.5512605 C8.56302521,13.0184874 9.35294118,13.2941176 10.1764706,13.3546218 L10.1764706,13.3546218 L10.1764706,13.9831933 C10.1764706,14.2352941 10.3815126,14.4403361 10.6336134,14.4403361 C10.8823529,14.4403361 11.087395,14.2352941 11.087395,13.9831933 L11.087395,13.9831933 L11.087395,13.3277311 C11.7563025,13.2436975 12.3176471,13.0151261 12.7344538,12.6554622 C13.2621849,12.2016807 13.5411765,11.5596639 13.5378451,10.8 C13.5378451,9.86554622 13.1109244,8.69915966 11.0840336,8.40672269 L11.0840336,8.40672269 L11.0840336,5.98655462 C11.4336134,6.05714286 11.7731092,6.18151261 12.0857143,6.35630252 L12.0857143,6.35630252 L12.0957983,6.35966387 C12.210084,6.42016807 12.3344538,6.45714286 12.4621849,6.4605042 L12.4621849,6.4605042 C12.805042,6.45714286 13.0806723,6.18151261 13.0806723,5.84201681 C13.0806723,5.70756303 13.0336134,5.45546218 12.7176471,5.2605042 C12.2638655,4.98151261 11.6957983,4.8 11.087395,4.72941176 L11.087395,4.72941176 L11.087395,4.39663866 C11.087395,4.14453782 10.8857143,3.9394958 10.6336134,3.9394958 Z M11.0840336,9.69747899 C12.1193277,9.91932773 12.2739496,10.3764706 12.2739496,10.8470588 C12.2739496,11.4991597 11.8302521,11.9529412 11.0840336,12.0941176 L11.0840336,12.0941176 Z M10.1731092,5.95294118 L10.1731092,8.26554622 C9.18487395,8.04033613 9.03697479,7.57983193 9.03697479,7.14621849 C9.03697479,6.48403361 9.45714286,6.05378151 10.1731092,5.95294118 L10.1731092,5.95294118 Z" id="Consulta-canjes-puntos-Movistar_3Masa"></path>
        </g>
    </g>
</svg>

<svg width="24" height="24" viewBox="0 0 24 24" xmlns="http://www.w3.org/2000/svg"><path d="M17.1 2.867a9.414 9.414 0 01.454 12.598l6.844 6.844a.674.674 0 01-.95.952l-6.836-6.836a9.35 9.35 0 01-6.167 2.301A9.415 9.415 0 013.787 2.652a9.418 9.418 0 0113.314.215zM10.446 1.24a8.07 8.07 0 00-5.707 13.778 8.073 8.073 0 0011.384.074.635.635 0 01.071-.077l.02-.016.134-.136a8.07 8.07 0 00-.15-11.216c-.014-.017-.03-.03-.044-.044a8.017 8.017 0 00-5.708-2.363zm-5.15 2.921a7.37 7.37 0 0110.428 0c2.88 2.878 2.877 7.547 0 10.427-2.878 2.88-7.547 2.878-10.427 0-2.88-2.877-2.878-7.546 0-10.427zm5.339-.222a.458.458 0 00-.458.458v.319c-1.468.134-2.4 1.079-2.4 2.487 0 .918.42 2.064 2.4 2.357v2.554c-.517-.067-1.035-.272-1.55-.615a.77.77 0 00-.41-.13.631.631 0 00-.638.624c0 .229.101.417.303.558a4.661 4.661 0 002.295.804v.628a.457.457 0 10.91 0h.001v-.655c.67-.084 1.23-.313 1.647-.673.528-.453.807-1.095.804-1.855 0-.934-.427-2.1-2.454-2.393v-2.42c.35.07.69.195 1.002.37l.01.003c.114.06.238.097.366.1a.621.621 0 00.619-.618c0-.134-.047-.387-.363-.581-.454-.28-1.022-.461-1.63-.532v-.332a.455.455 0 00-.454-.458zm.45 5.758c1.035.222 1.19.68 1.19 1.15 0 .652-.444 1.106-1.19 1.247zm-.91-3.744v2.313c-.99-.226-1.137-.686-1.137-1.12 0-.662.42-1.092 1.136-1.193z" fill="#5CB615" fill-rule="nonzero"/></svg>
